dist/img/svg/view.svg

<svg width="16" height="16" viewBox="0 0 16 16" fill="none" xmlns="http://www.w3.org/2000/svg">
<path fill-rule="evenodd" clip-rule="evenodd" d="M2.13405 8.07134C2.13446 8.07231 2.13488 8.0733 2.1353 8.07428C2.18145 8.18349 2.25382 8.34314 2.35578 8.53662C2.56016 8.92447 2.88064 9.44289 3.34281 9.96252C4.26165 10.9956 5.73711 12.0332 8.00815 12.0704C10.2684 12.1073 11.7368 11.0757 12.6542 10.0257C13.116 9.49726 13.4366 8.96478 13.6414 8.56445C13.7435 8.36482 13.8161 8.19956 13.8624 8.08623C13.864 8.08229 13.8656 8.0784 13.8672 8.07459C13.8654 8.07004 13.8636 8.06541 13.8618 8.06068C13.8168 7.9451 13.7462 7.77653 13.6462 7.57266C13.4458 7.16386 13.1303 6.61931 12.6718 6.07648C11.7608 4.99785 10.291 3.92847 7.99998 3.92847C5.70894 3.92847 4.23915 4.99785 3.32811 6.07648C2.86961 6.61931 2.55416 7.16386 2.35372 7.57266C2.25376 7.77653 2.18315 7.9451 2.13818 8.06068C2.13678 8.06429 2.1354 8.06784 2.13405 8.07134ZM14.4 8.07922C14.8771 7.9298 14.877 7.92955 14.877 7.92929L14.8763 7.92713L14.8749 7.92277L14.8704 7.90906C14.8667 7.89774 14.8614 7.88209 14.8545 7.86241C14.8408 7.82305 14.8207 7.76751 14.7937 7.69808C14.7397 7.55932 14.6579 7.36456 14.5441 7.13242C14.317 6.6692 13.9594 6.05107 13.4358 5.43121C12.3827 4.18446 10.6525 2.92847 7.99998 2.92847C5.34743 2.92847 3.61721 4.18446 2.56415 5.43121C2.04059 6.05107 1.68297 6.6692 1.45584 7.13242C1.34202 7.36456 1.26023 7.55932 1.20624 7.69808C1.17923 7.76751 1.15912 7.82305 1.1454 7.86241C1.13854 7.88209 1.13327 7.89774 1.12953 7.90906L1.12506 7.92277L1.12366 7.92713L1.12318 7.92868C1.12309 7.92894 1.12282 7.9298 1.59998 8.07922L1.12282 7.9298L1.07373 8.08657L1.12718 8.24191L1.59998 8.07922C1.12718 8.24191 1.12709 8.24165 1.12718 8.24191L1.12757 8.24302L1.1281 8.24454L1.12958 8.24879L1.13431 8.26201C1.13825 8.27289 1.14378 8.28788 1.15094 8.3067C1.16527 8.34434 1.18619 8.39735 1.21418 8.46356C1.27011 8.5959 1.35447 8.7815 1.4711 9.00282C1.70389 9.44458 2.06803 10.0339 2.5956 10.6271C3.65625 11.8196 5.38079 13.0275 7.9918 13.0702C10.6136 13.1131 12.3452 11.8992 13.4073 10.6837C13.9353 10.0794 14.2993 9.47413 14.5316 9.0199C14.6481 8.79226 14.7323 8.60104 14.788 8.46471C14.8159 8.3965 14.8367 8.34189 14.851 8.30317C14.8581 8.28381 14.8636 8.26841 14.8675 8.25726L14.8722 8.24374L14.8736 8.23944L14.8741 8.23791C14.8742 8.23765 14.8745 8.2368 14.4 8.07922ZM14.4 8.07922L14.8745 8.2368L14.9253 8.08372L14.877 7.92929L14.4 8.07922ZM7.99998 6.96243C7.3795 6.96243 6.89998 7.44841 6.89998 8.01934C6.89998 8.59027 7.37951 9.07624 7.99998 9.07624C8.62045 9.07624 9.09998 8.59027 9.09998 8.01934C9.09998 7.44841 8.62045 6.96243 7.99998 6.96243ZM5.89998 8.01934C5.89998 6.87056 6.85313 5.96243 7.99998 5.96243C9.14682 5.96243 10.1 6.87056 10.1 8.01934C10.1 9.16812 9.14682 10.0762 7.99998 10.0762C6.85313 10.0762 5.89998 9.16812 5.89998 8.01934Z" fill="currentColor"/>
</svg>

<svg width="16" height="16" viewBox="0 0 16 16" fill="none" xmlns="http://www.w3.org/2000/svg"><path fill-rule="evenodd" clip-rule="evenodd" d="M2.134 8.071l.001.003c.046.11.119.27.22.463.205.387.526.906.988 1.426.919 1.033 2.394 2.07 4.665 2.107 2.26.037 3.729-.994 4.646-2.044a7.283 7.283 0 001.213-1.951 7.368 7.368 0 00-1.195-1.998C11.76 4.996 10.29 3.927 8 3.927s-3.76 1.07-4.672 2.148a7.37 7.37 0 00-1.19 1.985l-.004.01zM14.4 8.08l.477-.15v-.002l-.002-.004-.005-.014a7.36 7.36 0 00-.326-.777 8.367 8.367 0 00-1.108-1.7C12.383 4.183 10.652 2.927 8 2.927c-2.653 0-4.383 1.256-5.436 2.503a8.37 8.37 0 00-1.358 2.267 4.96 4.96 0 00-.076.211l-.005.014-.001.004v.002l.476.15-.477-.15-.05.158.054.155.473-.163-.473.163v.001l.001.002.002.004.004.013a2.992 2.992 0 00.08.202c.056.132.14.317.257.539a8.258 8.258 0 001.125 1.624c1.06 1.193 2.785 2.4 5.396 2.443 2.622.043 4.353-1.17 5.415-2.386a8.282 8.282 0 001.381-2.22 5.024 5.024 0 00.08-.207l.004-.013.002-.005v-.001l-.474-.159zm0 0l.474.158.051-.153-.048-.155-.477.15zM8 6.962c-.62 0-1.1.486-1.1 1.057S7.38 9.076 8 9.076c.62 0 1.1-.486 1.1-1.057 0-.57-.48-1.057-1.1-1.057zM5.9 8.02c0-1.148.953-2.057 2.1-2.057 1.147 0 2.1.909 2.1 2.057 0 1.15-.953 2.057-2.1 2.057-1.147 0-2.1-.908-2.1-2.057z" fill="currentColor"/></svg>
